build/images/SVG/1/smile.svg

<!-- Generated by IcoMoon.io -->
<svg version="1.1" xmlns="http://www.w3.org/2000/svg" width="32" height="32" viewBox="0 0 32 32">
<title>smile</title>
<path fill="#2da97d" d="M27.314 4.686c-3.022-3.022-7.040-4.686-11.314-4.686s-8.292 1.664-11.314 4.686c-3.022 3.022-4.686 7.040-4.686 11.314s1.664 8.292 4.686 11.314c3.022 3.022 7.040 4.686 11.314 4.686s8.292-1.664 11.314-4.686c3.022-3.022 4.686-7.040 4.686-11.314s-1.664-8.292-4.686-11.314zM16 31.241c-8.404 0-15.241-6.837-15.241-15.241s6.837-15.242 15.241-15.242 15.241 6.837 15.241 15.242c0 8.404-6.837 15.241-15.241 15.241z"></path>
<path fill="#2da97d" d="M11.816 11.589c0 0.847-0.687 1.534-1.534 1.534s-1.534-0.687-1.534-1.534c0-0.847 0.687-1.534 1.534-1.534s1.534 0.687 1.534 1.534z"></path>
<path fill="#2da97d" d="M23.252 11.589c0 0.847-0.687 1.534-1.534 1.534s-1.534-0.687-1.534-1.534c0-0.847 0.687-1.534 1.534-1.534s1.534 0.687 1.534 1.534z"></path>
<path fill="#2da97d" d="M22.531 22.352c-1.526 0.93-3.941 2.039-6.781 2.039-2.832 0-5.103-1.104-6.509-2.030-1.527-1.006-2.397-2.027-2.415-2.048-0-0-0-0-0-0l-0.581 0.487c0.037 0.045 0.936 1.108 2.557 2.18 1.497 0.99 3.917 2.17 6.949 2.17 3.026 0 5.583-1.176 7.196-2.163 1.744-1.067 2.767-2.123 2.809-2.168l-0.547-0.525c-0.010 0.010-1.011 1.042-2.677 2.058z"></path>
</svg>

<svg xmlns="http://www.w3.org/2000/svg" width="32" height="32" viewBox="0 0 32 32"><title>smile</title><path fill="#2da97d" d="M27.314 4.686C24.292 1.664 20.274 0 16 0S7.708 1.664 4.686 4.686C1.664 7.708 0 11.726 0 16s1.664 8.292 4.686 11.314C7.708 30.336 11.726 32 16 32s8.292-1.664 11.314-4.686C30.336 24.292 32 20.274 32 16s-1.664-8.292-4.686-11.314zM16 31.241C7.596 31.241.759 24.404.759 16S7.596.758 16 .758 31.241 7.595 31.241 16c0 8.404-6.837 15.241-15.241 15.241z"/><path fill="#2da97d" d="M11.816 11.589a1.534 1.534 0 1 1-3.069 0 1.534 1.534 0 0 1 3.069 0zm11.436 0a1.534 1.534 0 1 1-3.069 0 1.534 1.534 0 0 1 3.069 0zm-.721 10.763c-1.526.93-3.941 2.039-6.781 2.039-2.832 0-5.103-1.104-6.509-2.03-1.527-1.006-2.397-2.027-2.415-2.048l-.581.487c.037.045.936 1.108 2.557 2.18 1.497.99 3.917 2.17 6.949 2.17 3.026 0 5.583-1.176 7.196-2.163 1.744-1.067 2.767-2.123 2.809-2.168l-.547-.525c-.01.01-1.011 1.042-2.677 2.058z"/></svg>
